X: 21512
T: ALBERT HORNPIPE
C: (Composed by Radford, brother of the above.)
N: The composer was an unnamed brother of #21511, The Three A's Hornpipe.
R: C|
B: K\"ohler's Violin Repository, v.2, 1885 p.151 #2
F: http://www.archive.org/details/klersviolinrepos02rugg
Z: 2012 John Chambers <jc:trillian.mit.edu>
M: C|
L: 1/8
K: E
v(b>a) |\
g>ed>f e>cB>A | G>AB>G E2(e'>d') | c'>ba>g a>cg>f | e>df>d B2(b>a) |
g>ed>f e>cB>A | G>AF>G E2G2 | A>c'a>c' f>d'b>d' |[1 d'2g'2 [e2B2E2] :|[2 e'2g'2 [E2G,2] ||
|: u(d>e) |\
(f>e)d>c (B>b)^a>=a | gfed ee'd'=d' | c'bag acgf | edfd B2(c>d) |
(3efg (3fed (3cde (3dcB | (3ABc (3BAG F^efa | (3gbg (3efg (3afd (3Bdf |[1 eBgf e2 :|[2 (3egb (3egb e'2 "_D.C."|]

%%sep 2 1 500

